svg/xmpp.svg

<svg xmlns="http://www.w3.org/2000/svg" viewBox="0 0 24 24"><path d="M12 15.4C9.75 13.09 8 9.54 8 6L2 4c0 5.65 4.33 10.11 8.55 12.66C9.38 17.5 8.15 18 7 18v1c1.2 0 3.03-.54 5-1.54 1.97 1 3.8 1.54 5 1.54v-1c-1.15 0-2.38-.5-3.55-1.34C17.66 14.11 22 9.65 22 4l-6 2c0 3.54-1.75 7.09-4 9.4"/></svg>

<?xml version="1.0" encoding="UTF-8"?><!DOCTYPE svg PUBLIC "-//W3C//DTD SVG 1.1//EN" "http://www.w3.org/Graphics/SVG/1.1/DTD/svg11.dtd"><svg xmlns="http://www.w3.org/2000/svg" xmlns:xlink="http://www.w3.org/1999/xlink" version="1.1" id="mdi-xmpp" width="24" height="24" viewBox="0 0 24 24"><path d="M12,15.4C9.75,13.09 8,9.54 8,6C2,4 8,6 2,4C2,9.65 6.33,14.11 10.55,16.66C9.38,17.5 8.15,18 7,18C7,19 7,18 7,19C8.2,19 10.03,18.46 12,17.46C13.97,18.46 15.8,19 17,19C17,18 17,19 17,18C15.85,18 14.62,17.5 13.45,16.66C17.66,14.11 22,9.65 22,4C16,6 22,4 16,6C16,9.54 14.25,13.09 12,15.4Z" /></svg>
